icons/lines/apple.svg

<svg xmlns="http://www.w3.org/2000/svg" width="24" height="24" viewBox="0 0 24 24" fill="none" stroke="currentColor" stroke-width="2" stroke-linecap="round" stroke-linejoin="round" >
  <path fill-rule="evenodd" clip-rule="evenodd" d="M15.3996 2C15.5996 3.1 15.0996 4.2 14.4996 5C13.8996 5.8 12.7996 6.5 11.6996 6.4C11.4996 5.3 11.9996 4.3 12.5996 3.5C13.2996 2.7 14.3996 2.1 15.3996 2ZM18.5996 19.4C19.0996 18.6 19.3996 18.1 19.7996 17.2C16.6996 16 16.1996 11.6 19.2996 10C18.3996 8.8 17.0996 8.2 15.7996 8.2C14.8996 8.2 14.2996 8.4 13.6996 8.6C13.1996 8.8 12.7996 8.9 12.2996 8.9C11.6996 8.9 11.2996 8.7 10.6996 8.5C10.0996 8.3 9.49956 8.1 8.79956 8.1C7.39956 8.1 5.89956 8.9 4.99956 10.4C3.69956 12.4 3.89956 16.3 5.99956 19.5C6.89956 20.7 7.89955 22 9.19955 22C9.79955 22 10.0996 21.8 10.4996 21.7C10.9996 21.5 11.4996 21.3 12.2996 21.3C13.1996 21.3 13.5996 21.5 14.0996 21.7C14.4996 21.9 14.7996 22 15.3996 22C16.7996 22 17.7996 20.5 18.5996 19.4Z" stroke-miterlimit="10"/>
  </svg>

<svg xmlns="http://www.w3.org/2000/svg" width="24" height="24" viewBox="0 0 24 24" fill="none" stroke="currentColor" stroke-width="2" stroke-linecap="round" stroke-linejoin="round">
  <path d="M15.4 2c.2 1.1-.3 2.2-.9 3s-1.7 1.5-2.8 1.4c-.2-1.1.3-2.1.9-2.9.7-.8 1.8-1.4 2.8-1.5" />
  <path d="M18.6 19.4a15.4 15.4 0 0 0 1.2-2.2c-3.1-1.2-3.6-5.6-.5-7.2-.9-1.2-2.2-1.8-3.5-1.8-.9 0-1.5.2-2.1.4-.5.2-.9.3-1.4.3-.6 0-1-.2-1.6-.4s-1.2-.4-1.9-.4c-1.4 0-2.9.8-3.8 2.3-1.3 2-1.1 5.9 1 9.1.9 1.2 1.9 2.5 3.2 2.5.6 0 .9-.2 1.3-.3.5-.2 1-.4 1.8-.4.9 0 1.3.2 1.8.4.4.2.7.3 1.3.3 1.4 0 2.4-1.5 3.2-2.6" />
</svg>
